X:31
T:The Captains Daughter
T:(originally called "Germantown")
C:Roy Watrous, 1959
S:The Watrous Book, 1992
M:6/8
L:1/8
Q:1/8=270
K:G
%%MIDI program 72
%%MIDI transpose 8
%%MIDI ratio 3 1
{DEF}G2B dBG|cde d2d|g2g efg|dBG AFD|G2B dBG|
cde d2d|gbg afe|def g2::d|g2g b2a|gfe d2B|dgB dgd|
BAG A3|{DEF}G2B dBG|cde d2d|gbg afe|def g2:|]

